vendor/shopware/storefront/Resources/app/storefront/dist/assets/icon/default/lab-flask.svg

<svg xmlns="http://www.w3.org/2000/svg" width="24" height="24" viewBox="0 0 24 24">
  <path fill="#758CA3" fill-rule="evenodd" d="M20.9671961,18.5777005 C21.7527104,20.0365128 21.2068946,21.855899 19.7480823,22.6414133 C19.3109571,22.8767884 18.8222503,23 18.3257828,23 L5.67421716,23 C4.01736291,23 2.67421716,21.6568542 2.67421716,20 C2.67421716,19.5035326 2.79742874,19.0148257 3.03280386,18.5777005 L8,9.3529077 L8,6.94973113 C7.37539512,6.31203216 7,5.44179347 7,4.49996031 L7,3.99992062 C7,2.34306638 8.34314575,0.999920625 10,0.999920625 L14,0.999920625 C15.6568542,0.999920625 17,2.34306638 17,3.99992062 L17,4.49996031 C17,5.36569671 16.6826102,6.17266358 16.1438843,6.79368569 L16.3975387,10.0911939 L20.9671961,18.5777005 Z M14.0710233,5.9233035 C14.6146995,5.66496716 15,5.12745961 15,4.49996031 L15,3.99992062 C15,3.44763587 14.5522847,2.99992062 14,2.99992062 L10,2.99992062 C9.44771525,2.99992062 9,3.44763587 9,3.99992062 L9,4.49996031 C9,5.15438029 9.41906957,5.71092132 10.0034894,5.91586404 C10.0011786,5.9436032 10,5.97166396 10,6 L10,9.85714286 L4.79374606,19.5259002 C4.71528769,19.6716086 4.67421716,19.8345109 4.67421716,20 C4.67421716,20.5522847 5.12193241,21 5.67421716,21 L18.3257828,21 C18.491272,21 18.6541743,20.9589295 18.7998827,20.8804711 C19.2861534,20.618633 19.468092,20.0121709 19.2062539,19.5259002 L14.4358974,10.6666667 L14.0710233,5.9233035 Z M12,17 C12.5522847,17 13,17.4477153 13,18 C13,18.5522847 12.5522847,19 12,19 C11.4477153,19 11,18.5522847 11,18 C11,17.4477153 11.4477153,17 12,17 Z M12,14 C12.5522847,14 13,14.4477153 13,15 C13,15.5522847 12.5522847,16 12,16 C11.4477153,16 11,15.5522847 11,15 C11,14.4477153 11.4477153,14 12,14 Z M12,11 C12.5522847,11 13,11.4477153 13,12 C13,12.5522847 12.5522847,13 12,13 C11.4477153,13 11,12.5522847 11,12 C11,11.4477153 11.4477153,11 12,11 Z"/>
</svg>

<svg xmlns="http://www.w3.org/2000/svg" width="24" height="24" viewBox="0 0 24 24"><path fill="#758CA3" fill-rule="evenodd" d="M20.9672 18.5777c.7855 1.4588.2397 3.2782-1.2191 4.0637A3 3 0 0 1 18.3258 23H5.6742c-1.6568 0-3-1.3431-3-3a3 3 0 0 1 .3586-1.4223L8 9.3529V6.9497A3.496 3.496 0 0 1 7 4.5V4c0-1.657 1.3431-3 3-3h4c1.6569 0 3 1.343 3 3v.5a3.495 3.495 0 0 1-.8561 2.2937l.2536 3.2975 4.5697 8.4865zM14.071 5.9233C14.6147 5.665 15 5.1275 15 4.5V4c0-.5524-.4477-1-1-1h-4c-.5523 0-1 .4476-1 1v.5c0 .6544.419 1.211 1.0035 1.4159A1.0133 1.0133 0 0 0 10 6v3.8571L4.7937 19.526a1 1 0 0 0-.1195.474c0 .5523.4477 1 1 1h12.6516a1 1 0 0 0 .474-.1195c.4864-.2619.6683-.8683.4065-1.3546l-4.7704-8.8592-.3649-4.7434zM12 17c.5523 0 1 .4477 1 1s-.4477 1-1 1-1-.4477-1-1 .4477-1 1-1zm0-3c.5523 0 1 .4477 1 1s-.4477 1-1 1-1-.4477-1-1 .4477-1 1-1zm0-3c.5523 0 1 .4477 1 1s-.4477 1-1 1-1-.4477-1-1 .4477-1 1-1z"/></svg>
